components/AppDevelopmentCommon/Svg/svgs/titledS3.svg

<svg width="101" height="145" viewBox="0 0 101 145" fill="none" xmlns="http://www.w3.org/2000/svg">
<path d="M8.802 132.21H3.33L2.322 135H0.594L5.13 122.526H7.02L11.538 135H9.81L8.802 132.21ZM8.334 130.878L6.066 124.542L3.798 130.878H8.334ZM25.3769 124.956C26.1449 124.956 26.8289 125.118 27.4289 125.442C28.0289 125.754 28.5029 126.228 28.8509 126.864C29.1989 127.5 29.3729 128.274 29.3729 129.186V135H27.7529V129.42C27.7529 128.436 27.5069 127.686 27.0149 127.17C26.5349 126.642 25.8809 126.378 25.0529 126.378C24.2009 126.378 23.5229 126.654 23.0189 127.206C22.5149 127.746 22.2629 128.532 22.2629 129.564V135H20.6429V129.42C20.6429 128.436 20.3969 127.686 19.9049 127.17C19.4249 126.642 18.7709 126.378 17.9429 126.378C17.0909 126.378 16.4129 126.654 15.9089 127.206C15.4049 127.746 15.1529 128.532 15.1529 129.564V135H13.5149V125.136H15.1529V126.558C15.4769 126.042 15.9089 125.646 16.4489 125.37C17.0009 125.094 17.6069 124.956 18.2669 124.956C19.0949 124.956 19.8269 125.142 20.4629 125.514C21.0989 125.886 21.5729 126.432 21.8849 127.152C22.1609 126.456 22.6169 125.916 23.2529 125.532C23.8889 125.148 24.5969 124.956 25.3769 124.956ZM31.4478 130.032C31.4478 129.024 31.6518 128.142 32.0598 127.386C32.4678 126.618 33.0258 126.024 33.7338 125.604C34.4538 125.184 35.2518 124.974 36.1278 124.974C36.9918 124.974 37.7418 125.16 38.3778 125.532C39.0138 125.904 39.4878 126.372 39.7998 126.936V125.136H41.4558V135H39.7998V133.164C39.4758 133.74 38.9898 134.22 38.3418 134.604C37.7058 134.976 36.9618 135.162 36.1098 135.162C35.2338 135.162 34.4418 134.946 33.7338 134.514C33.0258 134.082 32.4678 133.476 32.0598 132.696C31.6518 131.916 31.4478 131.028 31.4478 130.032ZM39.7998 130.05C39.7998 129.306 39.6498 128.658 39.3498 128.106C39.0498 127.554 38.6418 127.134 38.1258 126.846C37.6218 126.546 37.0638 126.396 36.4518 126.396C35.8398 126.396 35.2818 126.54 34.7778 126.828C34.2738 127.116 33.8718 127.536 33.5718 128.088C33.2718 128.64 33.1218 129.288 33.1218 130.032C33.1218 130.788 33.2718 131.448 33.5718 132.012C33.8718 132.564 34.2738 132.99 34.7778 133.29C35.2818 133.578 35.8398 133.722 36.4518 133.722C37.0638 133.722 37.6218 133.578 38.1258 133.29C38.6418 132.99 39.0498 132.564 39.3498 132.012C39.6498 131.448 39.7998 130.794 39.7998 130.05ZM45.4479 133.65H50.2899V135H43.5759V133.65L48.3639 126.468H43.6119V125.136H50.2539V126.468L45.4479 133.65ZM56.7173 135.162C55.7933 135.162 54.9533 134.952 54.1973 134.532C53.4533 134.112 52.8653 133.518 52.4333 132.75C52.0133 131.97 51.8033 131.07 51.8033 130.05C51.8033 129.042 52.0193 128.154 52.4513 127.386C52.8953 126.606 53.4953 126.012 54.2513 125.604C55.0073 125.184 55.8533 124.974 56.7893 124.974C57.7253 124.974 58.5713 125.184 59.3273 125.604C60.0833 126.012 60.6773 126.6 61.1093 127.368C61.5533 128.136 61.7753 129.03 61.7753 130.05C61.7753 131.07 61.5473 131.97 61.0913 132.75C60.6473 133.518 60.0413 134.112 59.2733 134.532C58.5053 134.952 57.6533 135.162 56.7173 135.162ZM56.7173 133.722C57.3053 133.722 57.8573 133.584 58.3733 133.308C58.8893 133.032 59.3033 132.618 59.6153 132.066C59.9393 131.514 60.1013 130.842 60.1013 130.05C60.1013 129.258 59.9453 128.586 59.6333 128.034C59.3213 127.482 58.9133 127.074 58.4093 126.81C57.9053 126.534 57.3593 126.396 56.7713 126.396C56.1713 126.396 55.6193 126.534 55.1153 126.81C54.6233 127.074 54.2273 127.482 53.9273 128.034C53.6273 128.586 53.4773 129.258 53.4773 130.05C53.4773 130.854 53.6213 131.532 53.9093 132.084C54.2093 132.636 54.6053 133.05 55.0973 133.326C55.5893 133.59 56.1293 133.722 56.7173 133.722ZM68.735 124.956C69.935 124.956 70.907 125.322 71.651 126.054C72.395 126.774 72.767 127.818 72.767 129.186V135H71.147V129.42C71.147 128.436 70.901 127.686 70.409 127.17C69.917 126.642 69.245 126.378 68.393 126.378C67.529 126.378 66.839 126.648 66.323 127.188C65.819 127.728 65.567 128.514 65.567 129.546V135H63.929V125.136H65.567V126.54C65.891 126.036 66.329 125.646 66.881 125.37C67.445 125.094 68.063 124.956 68.735 124.956ZM84.2195 135.126C83.3915 135.126 82.6475 134.982 81.9875 134.694C81.3395 134.394 80.8295 133.986 80.4575 133.47C80.0855 132.942 79.8935 132.336 79.8815 131.652H81.6275C81.6875 132.24 81.9275 132.738 82.3475 133.146C82.7795 133.542 83.4035 133.74 84.2195 133.74C84.9995 133.74 85.6115 133.548 86.0555 133.164C86.5115 132.768 86.7395 132.264 86.7395 131.652C86.7395 131.172 86.6075 130.782 86.3435 130.482C86.0795 130.182 85.7495 129.954 85.3535 129.798C84.9575 129.642 84.4235 129.474 83.7515 129.294C82.9235 129.078 82.2575 128.862 81.7535 128.646C81.2615 128.43 80.8355 128.094 80.4755 127.638C80.1275 127.17 79.9535 126.546 79.9535 125.766C79.9535 125.082 80.1275 124.476 80.4755 123.948C80.8235 123.42 81.3095 123.012 81.9335 122.724C82.5695 122.436 83.2955 122.292 84.1115 122.292C85.2875 122.292 86.2475 122.586 86.9915 123.174C87.7475 123.762 88.1735 124.542 88.2695 125.514H86.4695C86.4095 125.034 86.1575 124.614 85.7135 124.254C85.2695 123.882 84.6815 123.696 83.9495 123.696C83.2655 123.696 82.7075 123.876 82.2755 124.236C81.8435 124.584 81.6275 125.076 81.6275 125.712C81.6275 126.168 81.7535 126.54 82.0055 126.828C82.2695 127.116 82.5875 127.338 82.9595 127.494C83.3435 127.638 83.8775 127.806 84.5615 127.998C85.3895 128.226 86.0555 128.454 86.5595 128.682C87.0635 128.898 87.4955 129.24 87.8555 129.708C88.2155 130.164 88.3955 130.788 88.3955 131.58C88.3955 132.192 88.2335 132.768 87.9095 133.308C87.5855 133.848 87.1055 134.286 86.4695 134.622C85.8335 134.958 85.0835 135.126 84.2195 135.126ZM90.4999 125.262C90.5839 124.158 91.0099 123.294 91.7779 122.67C92.5459 122.046 93.5419 121.734 94.7659 121.734C95.5819 121.734 96.2839 121.884 96.8719 122.184C97.4719 122.472 97.9219 122.868 98.2219 123.372C98.5339 123.876 98.6899 124.446 98.6899 125.082C98.6899 125.826 98.4739 126.468 98.0419 127.008C97.6219 127.548 97.0699 127.896 96.3859 128.052V128.142C97.1659 128.334 97.7839 128.712 98.2399 129.276C98.6959 129.84 98.9239 130.578 98.9239 131.49C98.9239 132.174 98.7679 132.792 98.4559 133.344C98.1439 133.884 97.6759 134.31 97.0519 134.622C96.4279 134.934 95.6779 135.09 94.8019 135.09C93.5299 135.09 92.4859 134.76 91.6699 134.1C90.8539 133.428 90.3979 132.48 90.3019 131.256H91.8859C91.9699 131.976 92.2639 132.564 92.7679 133.02C93.2719 133.476 93.9439 133.704 94.7839 133.704C95.6239 133.704 96.2599 133.488 96.6919 133.056C97.1359 132.612 97.3579 132.042 97.3579 131.346C97.3579 130.446 97.0579 129.798 96.4579 129.402C95.8579 129.006 94.9519 128.808 93.7399 128.808H93.3259V127.44H93.7579C94.8619 127.428 95.6959 127.248 96.2599 126.9C96.8239 126.54 97.1059 125.988 97.1059 125.244C97.1059 124.608 96.8959 124.098 96.4759 123.714C96.0679 123.33 95.4799 123.138 94.7119 123.138C93.9679 123.138 93.3679 123.33 92.9119 123.714C92.4559 124.098 92.1859 124.614 92.1019 125.262H90.4999Z" fill="#A0A0A0"/>
<g>
<path d="M50.9961 68.0733L82.8715 75.786V15.9382L50.9961 23.656V68.0733Z" fill="#696969"/>
<path d="M82.875 15.9382L89.0005 19.0003V72.7418L82.875 75.8026V15.9382Z" fill="#9C9C9C"/>
<path d="M64.8994 26.6098L50.9961 23.17V0L64.8994 6.95101V26.6098Z" fill="#9C9C9C"/>
<path d="M50.9961 91.8636L64.8981 84.9151V65.2563L50.9961 68.6949V91.8636Z" fill="#9C9C9C"/>
<path d="M64.8994 55.7738L50.9961 57.5435V34.3722L64.8994 36.1163V55.7738Z" fill="#9C9C9C"/>
<path d="M50.9977 68.0733L19.1211 75.786V15.9382L50.9977 23.656V68.0733Z" fill="#9C9C9C"/>
<path d="M19.123 15.9382L13 19.0003V72.7418L19.123 75.8026V15.9382Z" fill="#696969"/>
<path d="M37.0977 26.6098L50.9971 23.17V0L37.0977 6.95101V26.6098Z" fill="#696969"/>
<path d="M50.9984 91.8636L37.0977 84.9151V65.2563L50.9984 68.6949V91.8636Z" fill="#696969"/>
<path d="M37.0977 55.7738L50.9971 57.5435V34.3722L37.0977 36.1163V55.7738Z" fill="#696969"/>
<path d="M64.9004 26.6098L50.9971 29.1437L37.0977 26.6098L50.9971 23.17L64.9004 26.6098Z" fill="#404040"/>
<path d="M64.9004 65.255L50.9971 62.7045L37.0977 65.255L50.9971 68.7164L64.9004 65.255Z" fill="#BBBBBB"/>
</g>
<defs>
<clipPath id="clip0_5535_15342">
<rect width="76" height="92" fill="white" transform="translate(13)"/>
</clipPath>
</defs>
</svg>

<svg xmlns="http://www.w3.org/2000/svg" width="101" height="145" fill="none">
  <path fill="#A0A0A0" d="M8.802 132.21H3.33L2.322 135H.594l4.536-12.474h1.89L11.538 135H9.81l-1.008-2.79Zm-.468-1.332-2.268-6.336-2.268 6.336h4.536Zm17.043-5.922c.768 0 1.452.162 2.052.486.6.312 1.074.786 1.422 1.422.348.636.522 1.41.522 2.322V135h-1.62v-5.58c0-.984-.246-1.734-.738-2.25-.48-.528-1.134-.792-1.962-.792-.852 0-1.53.276-2.034.828-.504.54-.756 1.326-.756 2.358V135h-1.62v-5.58c0-.984-.246-1.734-.738-2.25-.48-.528-1.134-.792-1.962-.792-.852 0-1.53.276-2.034.828-.504.54-.756 1.326-.756 2.358V135h-1.638v-9.864h1.638v1.422a3.252 3.252 0 0 1 1.296-1.188 4.008 4.008 0 0 1 1.818-.414c.828 0 1.56.186 2.196.558.636.372 1.11.918 1.422 1.638a3.235 3.235 0 0 1 1.368-1.62 4.03 4.03 0 0 1 2.124-.576Zm6.07 5.076c0-1.008.205-1.89.613-2.646a4.446 4.446 0 0 1 1.674-1.782c.72-.42 1.518-.63 2.394-.63.864 0 1.614.186 2.25.558.636.372 1.11.84 1.422 1.404v-1.8h1.656V135H39.8v-1.836c-.324.576-.81 1.056-1.458 1.44-.636.372-1.38.558-2.232.558-.876 0-1.668-.216-2.376-.648-.708-.432-1.266-1.038-1.674-1.818-.408-.78-.612-1.668-.612-2.664Zm8.353.018c0-.744-.15-1.392-.45-1.944a3.098 3.098 0 0 0-1.224-1.26 3.211 3.211 0 0 0-1.674-.45c-.612 0-1.17.144-1.674.432a3.134 3.134 0 0 0-1.206 1.26c-.3.552-.45 1.2-.45 1.944 0 .756.15 1.416.45 1.98.3.552.702.978 1.206 1.278a3.314 3.314 0 0 0 1.674.432c.612 0 1.17-.144 1.674-.432.516-.3.924-.726 1.224-1.278.3-.564.45-1.218.45-1.962Zm5.648 3.6h4.842V135h-6.714v-1.35l4.788-7.182h-4.752v-1.332h6.642v1.332l-4.806 7.182Zm11.27 1.512c-.925 0-1.765-.21-2.52-.63a4.58 4.58 0 0 1-1.765-1.782c-.42-.78-.63-1.68-.63-2.7 0-1.008.216-1.896.648-2.664a4.51 4.51 0 0 1 1.8-1.782c.756-.42 1.602-.63 2.538-.63.936 0 1.782.21 2.538.63.756.408 1.35.996 1.782 1.764.444.768.666 1.662.666 2.682s-.228 1.92-.684 2.7a4.634 4.634 0 0 1-1.818 1.782c-.768.42-1.62.63-2.556.63Zm0-1.44c.587 0 1.14-.138 1.655-.414.516-.276.93-.69 1.242-1.242.324-.552.486-1.224.486-2.016s-.156-1.464-.468-2.016c-.312-.552-.72-.96-1.224-1.224a3.356 3.356 0 0 0-1.638-.414c-.6 0-1.152.138-1.656.414-.492.264-.888.672-1.188 1.224-.3.552-.45 1.224-.45 2.016 0 .804.144 1.482.432 2.034.3.552.696.966 1.188 1.242a3.372 3.372 0 0 0 1.62.396Zm12.017-8.766c1.2 0 2.172.366 2.916 1.098.744.72 1.116 1.764 1.116 3.132V135h-1.62v-5.58c0-.984-.246-1.734-.738-2.25-.492-.528-1.164-.792-2.016-.792-.864 0-1.554.27-2.07.81-.504.54-.756 1.326-.756 2.358V135h-1.638v-9.864h1.638v1.404a3.266 3.266 0 0 1 1.314-1.17 4.16 4.16 0 0 1 1.854-.414Zm15.484 10.17c-.828 0-1.572-.144-2.231-.432-.648-.3-1.159-.708-1.53-1.224a3.178 3.178 0 0 1-.576-1.818h1.745c.06.588.3 1.086.72 1.494.433.396 1.056.594 1.873.594.78 0 1.392-.192 1.835-.576.456-.396.684-.9.684-1.512 0-.48-.132-.87-.395-1.17a2.53 2.53 0 0 0-.99-.684c-.397-.156-.93-.324-1.603-.504-.828-.216-1.494-.432-1.998-.648a3.318 3.318 0 0 1-1.278-1.008c-.347-.468-.521-1.092-.521-1.872 0-.684.174-1.29.522-1.818.347-.528.834-.936 1.457-1.224.636-.288 1.362-.432 2.178-.432 1.176 0 2.136.294 2.88.882.757.588 1.183 1.368 1.278 2.34h-1.8c-.06-.48-.311-.9-.755-1.26-.445-.372-1.032-.558-1.764-.558-.684 0-1.243.18-1.675.54-.431.348-.648.84-.648 1.476 0 .456.127.828.379 1.116.263.288.582.51.954.666.384.144.918.312 1.602.504.828.228 1.493.456 1.998.684.504.216.936.558 1.296 1.026.36.456.54 1.08.54 1.872 0 .612-.162 1.188-.487 1.728-.324.54-.803.978-1.44 1.314-.635.336-1.385.504-2.25.504Zm6.28-9.864c.085-1.104.51-1.968 1.279-2.592.768-.624 1.764-.936 2.988-.936.816 0 1.518.15 2.106.45.6.288 1.05.684 1.35 1.188.312.504.468 1.074.468 1.71 0 .744-.216 1.386-.648 1.926a2.83 2.83 0 0 1-1.656 1.044v.09c.78.192 1.398.57 1.854 1.134.456.564.684 1.302.684 2.214 0 .684-.156 1.302-.468 1.854-.312.54-.78.966-1.404 1.278-.624.312-1.374.468-2.25.468-1.272 0-2.316-.33-3.132-.99-.816-.672-1.272-1.62-1.368-2.844h1.584c.084.72.378 1.308.882 1.764.504.456 1.176.684 2.016.684.84 0 1.476-.216 1.908-.648.444-.444.666-1.014.666-1.71 0-.9-.3-1.548-.9-1.944-.6-.396-1.506-.594-2.718-.594h-.414v-1.368h.432c1.104-.012 1.938-.192 2.502-.54.564-.36.846-.912.846-1.656 0-.636-.21-1.146-.63-1.53-.408-.384-.996-.576-1.764-.576-.744 0-1.344.192-1.8.576-.456.384-.726.9-.81 1.548H90.5Z" />
  <path fill="#696969" d="m50.996 68.073 31.875 7.713V15.938l-31.875 7.718v44.417Z" />
  <path fill="#9C9C9C" d="M82.875 15.938 89.001 19v53.742l-6.126 3.06V15.939ZM64.9 26.61l-13.904-3.44V0L64.9 6.951V26.61ZM50.996 91.864l13.902-6.949V65.256l-13.902 3.439v23.169ZM64.9 55.774l-13.904 1.77V34.371L64.9 36.116v19.658Z" />
  <path fill="#9C9C9C" d="M50.998 68.073 19.12 75.786V15.938l31.877 7.718v44.417Z" />
  <path fill="#696969" d="M19.123 15.938 13 19v53.742l6.123 3.06V15.939ZM37.098 26.61l13.9-3.44V0l-13.9 6.951V26.61ZM50.998 91.864l-13.9-6.949V65.256l13.9 3.439v23.169ZM37.098 55.774l13.9 1.77V34.371l-13.9 1.744v19.658Z" />
  <path fill="#404040" d="m64.9 26.61-13.903 2.534-13.9-2.534 13.9-3.44L64.9 26.61Z" />
  <path fill="#BBB" d="m64.9 65.255-13.903-2.55-13.9 2.55 13.9 3.461L64.9 65.255Z" />
</svg>
